dist/img/icons/about/1.svg

<svg width="44" height="44" viewBox="0 0 44 44" fill="none" xmlns="http://www.w3.org/2000/svg">
<g clip-path="url(#clip0)">
<path d="M41.25 36.6663H2.75C1.23383 36.6663 0 35.4325 0 33.9163V10.083C0 8.56684 1.23383 7.33301 2.75 7.33301H8.25C8.756 7.33301 9.16667 7.74367 9.16667 8.24967C9.16667 8.75567 8.756 9.16634 8.25 9.16634H2.75C2.244 9.16634 1.83333 9.57884 1.83333 10.083V33.9163C1.83333 34.4205 2.244 34.833 2.75 34.833H41.25C41.756 34.833 42.1667 34.4205 42.1667 33.9163V10.083C42.1667 9.57884 41.756 9.16634 41.25 9.16634H35.75C35.244 9.16634 34.8333 8.75567 34.8333 8.24967C34.8333 7.74367 35.244 7.33301 35.75 7.33301H41.25C42.7662 7.33301 44 8.56684 44 10.083V33.9163C44 35.4325 42.7662 36.6663 41.25 36.6663Z" fill="white"/>
<path d="M30.25 44.0003H13.75C13.244 44.0003 12.8334 43.5897 12.8334 43.0837C12.8334 42.5777 13.244 42.167 13.75 42.167H30.25C30.756 42.167 31.1667 42.5777 31.1667 43.0837C31.1667 43.5897 30.756 44.0003 30.25 44.0003Z" fill="white"/>
<path d="M19.25 43.9997C18.744 43.9997 18.3334 43.589 18.3334 43.083V35.7497C18.3334 35.2437 18.744 34.833 19.25 34.833C19.756 34.833 20.1667 35.2437 20.1667 35.7497V43.083C20.1667 43.589 19.756 43.9997 19.25 43.9997Z" fill="white"/>
<path d="M24.75 43.9997C24.244 43.9997 23.8334 43.589 23.8334 43.083V35.7497C23.8334 35.2437 24.244 34.833 24.75 34.833C25.256 34.833 25.6667 35.2437 25.6667 35.7497V43.083C25.6667 43.589 25.256 43.9997 24.75 43.9997Z" fill="white"/>
<path d="M21.9945 21.9997C21.8625 21.9997 21.7305 21.9704 21.6095 21.9135L11.5317 17.2312C11.2072 17.0809 11 16.7582 11 16.4007V5.59871C11 5.28521 11.1595 4.99371 11.4235 4.82504C11.6875 4.65821 12.0212 4.63621 12.3017 4.76821L22.3795 9.45054C22.704 9.60088 22.9112 9.92538 22.9112 10.281V21.083C22.9112 21.3965 22.7517 21.688 22.4877 21.8567C22.3373 21.952 22.165 21.9997 21.9945 21.9997ZM12.8333 15.8159L21.0778 19.6475V10.8659L12.8333 7.03421V15.8159Z" fill="white"/>
<path d="M22.0054 22.0003C21.8331 22.0003 21.6607 21.9526 21.5122 21.8573C21.2482 21.6886 21.0887 21.3971 21.0887 21.0836V10.2798C21.0887 9.92412 21.2959 9.59962 21.6204 9.44929L31.6982 4.76696C31.9824 4.63679 32.3142 4.65696 32.5764 4.82379C32.8404 4.99429 32.9999 5.28579 32.9999 5.59929V16.4031C32.9999 16.7588 32.7927 17.0833 32.4682 17.2336L22.3904 21.916C22.2694 21.971 22.1374 22.0003 22.0054 22.0003ZM22.9221 10.8665V19.6481L31.1666 15.8165V7.03479L22.9221 10.8665ZM32.0832 16.4013H32.1016H32.0832Z" fill="white"/>
<path d="M32.0834 6.51573C31.9551 6.51573 31.8231 6.48823 31.6984 6.42956L22.0074 1.92873L12.3018 6.42956C11.8434 6.64773 11.2989 6.44423 11.0844 5.98589C10.8718 5.52573 11.0716 4.98123 11.5318 4.76856L21.6206 0.0862266C21.8663 -0.0274401 22.1486 -0.0274401 22.3924 0.0862266L32.4703 4.76856C32.9286 4.98123 33.1284 5.52573 32.9158 5.98589C32.7599 6.31773 32.4281 6.51573 32.0834 6.51573Z" fill="white"/>
<path d="M27.5 12.8336C26.994 12.8336 26.5833 12.4229 26.5833 11.9169V8.32359L17.1325 3.81543C16.676 3.59726 16.4817 3.05093 16.6998 2.59443C16.9162 2.13609 17.4643 1.93993 17.9227 2.16176L27.8336 6.88809C28.171 7.02559 28.4166 7.35376 28.4166 7.73692V11.9169C28.4166 12.4229 28.006 12.8336 27.5 12.8336Z" fill="white"/>
</g>
<defs>
<clipPath id="clip0">
<rect width="44" height="44" fill="white"/>
</clipPath>
</defs>
</svg>

<svg width="44" height="44" fill="none" xmlns="http://www.w3.org/2000/svg"><g clip-path="url(#clip0)" fill="#fff"><path d="M41.25 36.666H2.75A2.753 2.753 0 010 33.916V10.083a2.753 2.753 0 012.75-2.75h5.5a.917.917 0 010 1.833h-5.5a.918.918 0 00-.917.917v23.833c0 .505.411.917.917.917h38.5a.918.918 0 00.917-.917V10.083a.918.918 0 00-.917-.917h-5.5a.917.917 0 010-1.833h5.5a2.753 2.753 0 012.75 2.75v23.833a2.753 2.753 0 01-2.75 2.75zM30.25 44h-16.5a.917.917 0 010-1.833h16.5a.917.917 0 010 1.833z"/><path d="M19.25 44a.917.917 0 01-.917-.917V35.75a.917.917 0 011.834 0v7.333a.918.918 0 01-.917.917zm5.5 0a.917.917 0 01-.917-.917V35.75a.917.917 0 011.834 0v7.333a.918.918 0 01-.917.917zm-2.756-22a.907.907 0 01-.384-.087l-10.078-4.682a.914.914 0 01-.532-.83V5.599c0-.314.16-.605.424-.774a.919.919 0 01.878-.057L22.38 9.451c.324.15.531.474.531.83v10.802a.918.918 0 01-.917.917zm-9.16-6.184l8.244 3.832v-8.782l-8.245-3.832v8.782z"/><path d="M22.005 22a.914.914 0 01-.916-.916V10.28c0-.356.207-.68.531-.83l10.078-4.683a.923.923 0 01.878.057c.264.17.424.462.424.775v10.804c0 .356-.207.68-.532.83L22.39 21.917a.934.934 0 01-.385.084zm.917-11.133v8.781l8.245-3.832V7.035l-8.245 3.832zm9.161 5.534h.019-.019z"/><path d="M32.083 6.516a.905.905 0 01-.385-.086l-9.69-4.501-9.706 4.5a.917.917 0 11-.77-1.661L21.62.087a.916.916 0 01.771 0L32.47 4.77a.917.917 0 01-.387 1.747z"/><path d="M27.5 12.834a.917.917 0 01-.917-.917V8.324l-9.45-4.509a.916.916 0 11.79-1.653l9.91 4.726a.925.925 0 01.584.849v4.18a.918.918 0 01-.917.917z"/></g><defs><clipPath id="clip0"><path fill="#fff" d="M0 0h44v44H0z"/></clipPath></defs></svg>
